images/access-icon.svg

<svg fill="none" height="200" viewBox="0 0 200 200" width="200" xmlns="http://www.w3.org/2000/svg"><path d="m198.001 41.1974v117.5996c0 3.609-2.925 6.534-6.534 6.534h-182.933c-5.02937-.006-8.166792-5.454-5.64734-9.806 1.16672-2.016 3.31828-3.258 5.64734-3.261h39.2v-32.667c0-3.608 2.9251-6.533 6.5333-6.533h39.2v-32.6666c0-3.6083 2.9251-6.5333 6.5337-6.5333h39.2v-32.6667c0-3.6083 2.925-6.5333 6.533-6.5333h45.733c3.609 0 6.534 2.925 6.534 6.5333z" fill="#0052d9"/></svg>

<svg width="200" height="200" viewBox="0 0 200 200" fill="none" xmlns="http://www.w3.org/2000/svg">
<path d="M198.001 41.1974V158.797C198.001 162.406 195.076 165.331 191.467 165.331H8.534C3.50463 165.325 0.367208 159.877 2.88666 155.525C4.05338 153.509 6.20494 152.267 8.534 152.264H47.734V119.597C47.734 115.989 50.6591 113.064 54.2673 113.064H93.4673V80.3974C93.4673 76.7891 96.3924 73.8641 100.001 73.8641H139.201V41.1974C139.201 37.5891 142.126 34.6641 145.734 34.6641H191.467C195.076 34.6641 198.001 37.5891 198.001 41.1974Z" fill="#0052D9"/>
</svg>
